X: 142
M: C
L: 1/8
K: Am
|:\
aeab ac'ba | (gd).g.a (gb).a.g | aeab ac'ba | gedB A/A/AA2 |
(ae).a.b (ac').b.a | gaba gedg | eg.a.b ag.e.b | gedB A/A/AA2 |]


